X:1381
T:Cumberland Rant
O:england
M:C|
A:North-West
R:Reel
K:Bb
dc|\
B2B,2 B,DB,D| DFEG F3B| GBeg fdcB| A2c2 c2dc|\
B2B,2 B,DB,D| DFEG F3B| GBeg fdcB| F2B2 B2::\
de|\
fdcB dBfe| dBfB bBfB| defg fdcB| A2c2 c2de|\
fdcB dBfe| dBfB bBfB| gefd ecdB| F2B2 B2:|


